X:1
T:[ID 2-3b]
T:[ID 2-3b]
T:Bezeichnung standardisiert: Menuett Menuet In dieser Quelle auch als: Menuetto
T:Urheber unbekannt Erstbeleg: 1767 (Datum in der schriftlichen Quelle) Datum in der hier transkribierten schriftlichen Quelle: 1796
C:Urheber unbekannt
C:Erstbeleg: 1767 (Datum in der schriftlichen Quelle)
C:Datum in der hier transkribierten schriftlichen Quelle: 1796
L:1/8
M:3/4
K:A
V:1 treble 
V:1
 e4 cA | d2 B2 z2 | .c2 .d2 .e2 | .f2 .g2 .a2 | e4 cA | d2 B2 z2 | (ce)(ed)(dc) | c2 B2 z2 :: %8
 e2 ed e2 | f2 fe f2 | g2 gfge | agab a2 | e4 cA | d2 B2 z2 | (3agf edcB | B4 A2 :| %16

